mobile/24/svg/microphone-slash-24.svg

<svg width="24" height="24" viewBox="0 0 24 24" fill="none" xmlns="http://www.w3.org/2000/svg">
<path d="M10 7.636V5.75C10 4.647 10.897 3.75 12 3.75C13.103 3.75 14 4.647 14 5.75V10.5C14 10.828 13.913 11.134 13.772 11.408L15.041 12.677C15.483 12.062 15.75 11.313 15.75 10.5V5.75C15.75 3.683 14.067 2 12 2C9.933 2 8.25 3.683 8.25 5.75V5.886L10 7.636Z" fill="black"/>
<path d="M17.529 15.1661C18.6 13.9021 19.25 12.2701 19.25 10.4871H17.5C17.5 11.7871 17.044 12.9811 16.287 13.9231L17.529 15.1661Z" fill="black"/>
<path d="M8.25 8.01256L3.23768 3.00024L2.00024 4.23768L8.25 10.4874V10.5C8.25 12.567 9.933 14.25 12 14.25L12.0125 14.2499L13.531 15.7684C13.0451 15.9105 12.5316 15.9869 12 15.9869C8.968 15.9869 6.5 13.5189 6.5 10.4869H4.75C4.75 14.1888 7.53814 17.2512 11.125 17.6844V20.2499H7V21.9999H17V20.2499H12.875V17.6839C13.5843 17.5975 14.2616 17.4073 14.8925 17.1299L19.7622 21.9997L20.9997 20.7622L16.4418 16.2044L16.445 16.2019L15.197 14.9539L15.1937 14.9563L13.9335 13.6961L13.937 13.694L12.631 12.388L12.6268 12.3894L10 9.76256V9.75696L8.25 8.00696V8.01256Z" fill="black"/>
</svg>

<svg width="24" height="24" fill="none" xmlns="http://www.w3.org/2000/svg"><path d="M10 7.636V5.75c0-1.103.897-2 2-2s2 .897 2 2v4.75c0 .328-.087.634-.228.908l1.269 1.269a3.718 3.718 0 0 0 .709-2.177V5.75A3.755 3.755 0 0 0 12 2a3.755 3.755 0 0 0-3.75 3.75v.136L10 7.636zM17.529 15.166a7.216 7.216 0 0 0 1.721-4.679H17.5c0 1.3-.456 2.494-1.213 3.436l1.242 1.243zM8.25 8.013 3.238 3 2 4.238l6.25 6.25v.012A3.755 3.755 0 0 0 12 14.25h.012l1.519 1.518c-.486.143-1 .219-1.531.219a5.507 5.507 0 0 1-5.5-5.5H4.75c0 3.702 2.788 6.764 6.375 7.197v2.566H7V22h10v-1.75h-4.125v-2.566a7.157 7.157 0 0 0 2.018-.554l4.87 4.87L21 20.762l-4.558-4.558.003-.002-1.248-1.248-.003.002-1.26-1.26.003-.002-1.306-1.306-.004.001L10 9.763v-.006l-1.75-1.75v.006z" fill="#000"/></svg>
